X: 372
T:Se congi\'e prens/Recordans de my segnora
N: Derived from Jos2831-Se_congie_prens__Recordans_de_my_segnora.krn
C: Josquin des Prez
%%abc-version 2.0
%%abcx-abcm2ps-target-version 5.9.1 (29 Sep 2008)
%%abc-creator hum2abc beta
%%abcx-conversion-date 2019/02/12 16:15:54
%%abc-edited-by Jesse Rodin
%%abc-edited-by Jesse Rodin; Victoria Chang 2011/10/21
%%abcx-initial-encoding-date 2011/10/21/
%%humdrum-veritas 1708461999
%%humdrum-veritas-data 3140116743
%%linebreak <none>
%%barnumbers 0
L: 1/4
M: 4/2
Q: 1/2=120
%%staves [1 2 3 4]
V: 1 clef=treble
V: 2 clef=treble-8
V: 3 clef=treble-8
V: 4 clef=bass
K: C
[V:1] z8 | 
[V:2] z8 | 
[V:3] z8 | 
[V:4] z4D,4 | 
[V:1] z8 | 
[V:2] z4d4 | 
[V:3] G4F2F2 | 
[V:4] C,2C,2D,4 | 
[V:1] G4F2F2 | 
[V:2] c2c2d4 | 
[V:3] G4A4 | 
[V:4] E,4D,4 | 
[V:1] G4z2A2 | 
[V:2] z2e2fedc | 
[V:3] G4z2c2 | 
[V:4] z2G,2F,2A,2 | 
[V:1] _BAGFG2G2 | 
[V:2] d2d2c4 | 
[V:3] _B2d2c_BAG | 
[V:4] G,F,E,D,E,4 | 
[V:1] F4z4 | 
[V:2] z4f4 | 
[V:3] A4_B4 | 
[V:4] F,4z2D,2 | 
[V:1] _B4A2G2 | 
[V:2] e2d2e4 | 
[V:3] z2G2c2c2 | 
[V:4] G,2G,2C,2C,2 | 
[V:1] A4F2_B2- | 
[V:2] c2f4e2- | 
[V:3] F2F2_B2_B2 | 
[V:4] F,2F,2D,2G,2- | 
[V:1] B2A3GG2- | 
[V:2] edd4^c2 | 
[V:3] G2c3_BAG | 
[V:4] G,F,E,D,E,4 | 
[V:1] G2^F2G4 | 
[V:2] d4z4 | 
[V:3] A4G4 | 
[V:4] D,4z4 | 
[V:1] z8 | 
[V:2] z8 | 
[V:3] z4G4 | 
[V:4] D,4C,2C,2 | 
[V:1] z4G4 | 
[V:2] d4c2c2 | 
[V:3] F2F2G4 | 
[V:4] D,4E,4 | 
[V:1] F2F2G4 | 
[V:2] d4z2e2 | 
[V:3] A4G4 | 
[V:4] D,4z2G,2 | 
[V:1] z2A2_BAGF | 
[V:2] fedcd2d2 | 
[V:3] z2c2_B2d2 | 
[V:4] F,2A,2G,F,E,D, | 
[V:1] G2G2F4 | 
[V:2] c4z4 | 
[V:3] c_BAGA4 | 
[V:4] E,4F,4 | 
[V:1] z4_B4 | 
[V:2] f4e2d2 | 
[V:3] _B4z2G2 | 
[V:4] z2D,2G,2G,2 | 
[V:1] A2G2A4 | 
[V:2] e4c2f2- | 
[V:3] c2c2F2F2 | 
[V:4] C,2C,2F,4 | 
[V:1] F2_B4A2- | 
[V:2] f2e3dd2- | 
[V:3] _B2_B2G2c2- | 
[V:4] D,2G,3F,E,D, | 
[V:1] AGG4^F2 | 
[V:2] d2^c2d4 | 
[V:3] c_BAGA4 | 
[V:4] E,4D,4 | 
[V:1] G4z4 | 
[V:2] z4a4 | 
[V:3] G4z2c2 | 
[V:4] z2G,2A,2A,2 | 
[V:1] d4d2d2 | 
[V:2] a2a2d4 | 
[V:3] d2d2_B2G2 | 
[V:4] F,2D,2G,3F, | 
[V:1] G4z2c2 | 
[V:2] z2g2a2a2 | 
[V:3] c3_BAGF2 | 
[V:4] E,D,C,2F,4 | 
[V:1] d2d2d2c2 | 
[V:2] a2g2f4 | 
[V:3] _B4G2A2 | 
[V:4] D,2E,2F,4 | 
[V:1] _B4z4 | 
[V:2] z4f4 | 
[V:3] _B4c4 | 
[V:4] G,4F,2A,2 | 
[V:1] _B4c2c2 | 
[V:2] g2g2a4- | 
[V:3] _B2d2c2e2 | 
[V:4] G,2_B,2A,2A,2 | 
[V:1] d6_B2 | 
[V:2] a2f2g3f | 
[V:3] d2d2G4 | 
[V:4] D,4G,4 | 
[V:1] c3_BA2G2 | 
[V:2] e2d2c4 | 
[V:3] c4F3G | 
[V:4] C,3D,F,2E,2 | 
[V:1] F4G4 | 
[V:2] d4c2c2 | 
[V:3] _B2A2G4 | 
[V:4] D,4E,4 | 
[V:1] F2F2G4 | 
[V:2] d4z2e2 | 
[V:3] A4G4 | 
[V:4] D,4z2G,2 | 
[V:1] z2A2_BAGF | 
[V:2] fedcd2d2 | 
[V:3] z2c2_B2d2 | 
[V:4] F,2A,2G,F,E,D, | 
[V:1] G2G2F4 | 
[V:2] c4z4 | 
[V:3] c_BAGA4 | 
[V:4] E,4F,4 | 
[V:1] z4_B4 | 
[V:2] f4e2d2 | 
[V:3] _B4z2G2 | 
[V:4] z2D,2G,2G,2 | 
[V:1] A2G2A4 | 
[V:2] e4c2f2- | 
[V:3] c2c2F2F2 | 
[V:4] C,2C,2F,2F,2 | 
[V:1] F2_B4A2- | 
[V:2] f2e3dd2- | 
[V:3] _B4G2c2- | 
[V:4] D,2G,3F,E,D, | 
[V:1] AGG4^F2 | 
[V:2] d2^c2d4- | 
[V:3] c_BAGA4 | 
[V:4] E,4D,4 | 
[V:1] G8 |]  
[V:2] d8 |]  
[V:3] G8 |]  
[V:4] G,8 |]  



